assets/Otter/Flat/otter_flat.svg

<svg width="32" height="32" viewBox="0 0 32 32" fill="none" xmlns="http://www.w3.org/2000/svg">
<path d="M12.96 19.3003C13.7111 19.3003 14.32 18.6914 14.32 17.9403C14.32 17.1892 13.7111 16.5803 12.96 16.5803C12.2089 16.5803 11.6 17.1892 11.6 17.9403C11.6 18.6914 12.2089 19.3003 12.96 19.3003Z" fill="#7D4533"/>
<path d="M23.28 12.0803C22.66 12.0803 22.16 12.5803 22.16 13.2003V14.3203H21.37C18.09 14.3203 15.44 16.9803 15.44 20.2503V22.1603H24.4V13.2003C24.4 12.5803 23.9 12.0803 23.28 12.0803Z" fill="#6D4534"/>
<path d="M29.98 14.3204C29.98 9.19036 25.86 5.18036 20.72 5.00036C20.69 5.00036 20.66 5.00036 20.63 5.00036C20.02 4.98036 19.81 5.80036 20.35 6.08036C23.41 7.68036 25.53 10.4704 25.53 14.1604V15.4404C25.53 14.8204 25.03 14.3204 24.41 14.3204C23.79 14.3204 23.29 14.8204 23.29 15.4404V16.5604H22.5C20.62 16.5604 18.95 17.4304 17.86 18.8004L16 20H13C12.34 20 12 18.2604 12 17.6004V14.8804C12 13.8304 11.76 12.8604 11.21 12.0504C11.71 11.9404 12.08 11.4904 12.08 10.9604C12.08 10.3404 11.58 9.84036 10.96 9.84036C10.43 9.84036 9.98 10.2104 9.87 10.7104C9.06 10.1604 8.09 9.84036 7.04 9.84036C5.99 9.84036 5.02 10.1604 4.21 10.7104C4.1 10.2104 3.65 9.84036 3.12 9.84036C2.5 9.84036 2 10.3404 2 10.9604C2 11.4904 2.37 11.9404 2.87 12.0504C2.32 12.8504 2 13.8304 2 14.8804V21.8404C2 26.3404 5.66 30.0004 10.17 30.0004H21.84C26.35 30.0004 30.01 26.3404 30.01 21.8304V14.3204H29.98Z" fill="#A56953"/>
<path d="M7.80002 14.2504L8.59002 15.0404C9.02002 15.4804 9.02002 16.1804 8.59002 16.6204C8.15002 17.0604 7.45002 17.0604 7.01002 16.6204L7.00002 16.6104L6.99002 16.6204C6.55002 17.0604 5.85002 17.0604 5.41002 16.6204C4.97002 16.1804 4.97002 15.4804 5.41002 15.0404L6.20002 14.2504C6.42002 14.0304 6.71002 13.9204 7.00002 13.9204C7.29002 13.9204 7.58002 14.0304 7.80002 14.2504Z" fill="#F3AD61"/>
<path d="M11.6 18.9703L13.28 18.8003H17.86C17.52 19.1703 16.57 20.3903 16.57 22.4903V25.5203H11.9C9.50001 25.5203 7.48001 23.9703 6.76001 21.8203H8.16001C9.62001 21.8203 10.94 20.9003 11.46 19.5403C11.53 19.3603 11.54 19.1703 11.52 18.9903C11.5437 18.9903 11.5612 18.984 11.5824 18.9765C11.5879 18.9745 11.5938 18.9724 11.6 18.9703Z" fill="#F3AD61"/>
<path d="M10.76 16.5603H9.76997C9.18997 16.5603 8.71997 17.0303 8.71997 17.6103V18.6003C8.71997 18.8703 8.76997 19.1403 8.84997 19.3803C9.07997 19.2303 9.26997 19.0203 9.36997 18.7503C9.58997 18.1703 10.24 17.8803 10.81 18.1003C11.39 18.3203 11.68 18.9703 11.46 19.5403C11.25 20.0903 10.91 20.5703 10.48 20.9403C10.7 21.0003 10.93 21.0403 11.16 21.0403H12.15C12.73 21.0403 13.2 20.5703 13.2 19.9903V19.0003C13.2 17.6503 12.11 16.5603 10.76 16.5603Z" fill="#D3D3D3"/>
<path d="M4.38001 15.0704C4.68929 15.0704 4.94001 14.8197 4.94001 14.5104C4.94001 14.2012 4.68929 13.9504 4.38001 13.9504C4.07073 13.9504 3.82001 14.2012 3.82001 14.5104C3.82001 14.8197 4.07073 15.0704 4.38001 15.0704Z" fill="#1C1C1C"/>
<path d="M9.65998 15.0704C9.96925 15.0704 10.22 14.8197 10.22 14.5104C10.22 14.2012 9.96925 13.9504 9.65998 13.9504C9.3507 13.9504 9.09998 14.2012 9.09998 14.5104C9.09998 14.8197 9.3507 15.0704 9.65998 15.0704Z" fill="#1C1C1C"/>
<path d="M7.67999 14.7904C7.67999 15.1549 7.38449 15.4504 7.01999 15.4504C6.65548 15.4504 6.35999 15.1549 6.35999 14.7904C6.35999 14.4259 6.65548 14.1304 7.01999 14.1304C7.38449 14.1304 7.67999 14.4259 7.67999 14.7904Z" fill="#1C1C1C"/>
</svg>

<svg xmlns="http://www.w3.org/2000/svg" width="32" height="32" fill="none"><path fill="#7D4533" d="M12.96 19.3a1.36 1.36 0 1 0 0-2.72 1.36 1.36 0 0 0 0 2.72Z"/><path fill="#6D4534" d="M23.28 12.08c-.62 0-1.12.5-1.12 1.12v1.12h-.79a5.93 5.93 0 0 0-5.93 5.93v1.91h8.96V13.2c0-.62-.5-1.12-1.12-1.12Z"/><path fill="#A56953" d="M29.98 14.32c0-5.13-4.12-9.14-9.26-9.32h-.09c-.61-.02-.82.8-.28 1.08 3.06 1.6 5.18 4.39 5.18 8.08v1.28c0-.62-.5-1.12-1.12-1.12-.62 0-1.12.5-1.12 1.12v1.12h-.79c-1.88 0-3.55.87-4.64 2.24L16 20h-3c-.66 0-1-1.74-1-2.4v-2.72c0-1.05-.24-2.02-.79-2.83.5-.11.87-.56.87-1.09a1.118 1.118 0 0 0-2.21-.25c-.81-.55-1.78-.87-2.83-.87s-2.02.32-2.83.87a1.118 1.118 0 0 0-2.21.25c0 .53.37.98.87 1.09-.55.8-.87 1.78-.87 2.83v6.96C2 26.34 5.66 30 10.17 30h11.67c4.51 0 8.17-3.66 8.17-8.17v-7.51h-.03Z"/><path fill="#F3AD61" d="m7.8 14.25.79.79c.43.44.43 1.14 0 1.58-.44.44-1.14.44-1.58 0L7 16.61l-.01.01c-.44.44-1.14.44-1.58 0a1.11 1.11 0 0 1 0-1.58l.79-.79c.22-.22.51-.33.8-.33.29 0 .58.11.8.33ZM11.6 18.97l1.68-.17h4.58c-.34.37-1.29 1.59-1.29 3.69v3.03H11.9c-2.4 0-4.42-1.55-5.14-3.7h1.4c1.46 0 2.78-.92 3.3-2.28.07-.18.08-.37.06-.55.024 0 .041-.006.062-.013a.839.839 0 0 1 .018-.007Z"/><path fill="#D3D3D3" d="M10.76 16.56h-.99c-.58 0-1.05.47-1.05 1.05v.99c0 .27.05.54.13.78.23-.15.42-.36.52-.63a1.117 1.117 0 1 1 2.09.79c-.21.55-.55 1.03-.98 1.4.22.06.45.1.68.1h.99c.58 0 1.05-.47 1.05-1.05V19c0-1.35-1.09-2.44-2.44-2.44Z"/><path fill="#1C1C1C" d="M4.38 15.07a.56.56 0 1 0 0-1.12.56.56 0 0 0 0 1.12ZM9.66 15.07a.56.56 0 1 0 0-1.12.56.56 0 0 0 0 1.12ZM7.68 14.79a.66.66 0 1 1-1.32 0 .66.66 0 0 1 1.32 0Z"/></svg>
